assets/Test tube/Flat/test_tube_flat.svg

<svg width="32" height="32" viewBox="0 0 32 32" fill="none" xmlns="http://www.w3.org/2000/svg">
<path d="M12.3136 12.7574L20.4999 11L25.7487 13.4646L11.6065 27.6067C9.6539 29.5593 6.48807 29.5593 4.53545 27.6067C2.58283 25.6541 2.58283 22.4882 4.53545 20.5356L5.59212 19.479L6.64879 19.5664V18.4223L9.84605 15.225L10.8949 15.1953V14.1762L12.3136 12.7574Z" fill="#C3EF3C"/>
<path d="M21.8596 2.50428C21.2738 1.91849 20.3241 1.91849 19.7383 2.50428C19.1525 3.09007 19.1525 4.03982 19.7383 4.6256L20.0918 4.97916L15.1174 9.95364L15.5 11L14.1038 10.9672L12.3136 12.7574L25.7486 13.4645L27.1629 12.0502L27.5165 12.4038C28.1023 12.9896 29.052 12.9896 29.6378 12.4038C30.2236 11.818 30.2236 10.8682 29.6378 10.2825L21.8596 2.50428Z" fill="#AEDDFF"/>
<path d="M15.1421 9.92896L17.4402 12.2271C17.7331 12.5199 17.7331 12.9948 17.4402 13.2877C17.1473 13.5806 16.6724 13.5806 16.3795 13.2877L14.0814 10.9896L15.1421 9.92896Z" fill="#008463"/>
<path d="M10.8994 14.1716L13.1975 16.4697C13.4904 16.7626 13.4904 17.2375 13.1975 17.5304C12.9046 17.8233 12.4297 17.8233 12.1368 17.5304L9.83875 15.2323L10.8994 14.1716Z" fill="#008463"/>
<path d="M8.95495 20.7123L6.65685 18.4142L5.59619 19.4748L7.89429 21.7729C8.18718 22.0658 8.66206 22.0658 8.95495 21.7729C9.24784 21.48 9.24784 21.0052 8.95495 20.7123Z" fill="#008463"/>
</svg>

<svg xmlns="http://www.w3.org/2000/svg" width="32" height="32" fill="none"><path fill="#C3EF3C" d="M12.314 12.757 20.5 11l5.249 2.465-14.142 14.142a5 5 0 0 1-7.072-7.071l1.057-1.057 1.057.087v-1.144l3.197-3.197 1.049-.03v-1.019l1.419-1.419Z"/><path fill="#AEDDFF" d="M21.86 2.504a1.5 1.5 0 1 0-2.122 2.122l.354.353-4.975 4.975L15.5 11l-1.396-.033-1.79 1.79 13.435.707 1.414-1.414.354.354a1.5 1.5 0 1 0 2.12-2.121L21.86 2.504Z"/><path fill="#008463" d="m15.142 9.929 2.298 2.298a.75.75 0 1 1-1.06 1.06L14.08 10.99l1.061-1.061ZM10.9 14.172l2.297 2.298a.75.75 0 0 1-1.06 1.06l-2.298-2.298 1.06-1.06ZM8.955 20.712l-2.298-2.298-1.06 1.06 2.297 2.299a.75.75 0 0 0 1.061-1.06Z"/></svg>
